;FLAVOR:Marlin
;TIME:1010
;Filament used: 0.49988m
;Layer height: 0.1
;MINX:94.34
;MINY:56.064
;MINZ:0.3
;MAXX:126.9
;MAXY:87.489
;MAXZ:8.3
;Generated with Cura_SteamEngine 4.5.0
M140 S50
M105
M190 S50
M104 S200
M105
M109 S200
M82 ;absolute extrusion mode
M117 HALLO DU DA!!!!
; speed = 60
; a = 3000
; bottom_layers = 8
;; START Cleaning
M117 Cleaningg			; Indicate nozzle clean in progress on LCD
M82 					;set extruder to absolute mode
M107 					;start with the fan off
G21 					;metric values
G90 					;absolute positioning
G28 					;Home (X/Y/Z=0)
M140 S50				; Bed-Temp
G0 Z15 F9000
G0 X20 Y50 Z0.3 F500	; Startposition for Cleaning in bed
G92 E0              	; Set extruder to [0] zero
G1 X80 E25 F500			; Extrude for cleaning (or long line X190 E50)
G92 E0              	; Reset extruder to [0] zero end of cleaning run
G1 E-3 F500         	; Retract filiment by 3 mm to reduce string effect
G1 Z15					; Save home-position			; Z Save-Postion
G1 X0 Y0 Z15 F9000
G1 F9000
M117 Printing...
G92 E0
G92 E0
G1 F1500 E-6.5
;LAYER_COUNT:81
;LAYER:0
M107
G0 F3600 X97.443 Y63.128 Z0.3
;TYPE:SKIRT
G1 F1500 E0
G1 F1800 X97.767 Y62.626 E0.02981
G1 X98.357 Y61.818 E0.07972
G1 X98.748 Y61.337 E0.11065
G1 X99.423 Y60.593 E0.16077
G1 X99.856 Y60.159 E0.19135
G1 X100.594 Y59.499 E0.24075
G1 X101.068 Y59.114 E0.27121
G1 X101.891 Y58.522 E0.32179
G1 X102.396 Y58.193 E0.35186
G1 X103.275 Y57.692 E0.40234
G1 X103.805 Y57.419 E0.43208
G1 X104.728 Y57.014 E0.48237
G1 X105.293 Y56.796 E0.51258
G1 X106.261 Y56.487 E0.56328
G1 X106.839 Y56.331 E0.59314
G1 X107.826 Y56.126 E0.64344
G1 X108.415 Y56.064 E0.67298
G1 X109.248 Y56.149 E0.71476
G1 X109.602 Y56.251 E0.73314
G1 X110.099 Y56.469 E0.76021
G1 X110.418 Y56.663 E0.77884
G1 X110.842 Y57.006 E0.80605
G1 X111.108 Y57.292 E0.82554
G1 X111.422 Y57.741 E0.85287
G1 X111.596 Y58.078 E0.87179
G1 X111.779 Y58.598 E0.89929
G1 X111.892 Y59.314 E0.93546
G1 X111.9 Y61.789 E1.05894
G1 X125.383 Y61.789 E1.73161
G1 X125.715 Y61.829 E1.74829
G1 X126.027 Y61.946 E1.76491
G1 X126.49 Y62.316 E1.79448
G1 X126.696 Y62.579 E1.81115
G1 X126.835 Y62.883 E1.82783
G1 X126.9 Y63.306 E1.84918
G1 X126.9 Y79.872 E2.67566
G1 X126.86 Y80.204 E2.69234
G1 X126.743 Y80.516 E2.70897
G1 X126.373 Y80.979 E2.73854
G1 X126.11 Y81.185 E2.7552
G1 X125.806 Y81.324 E2.77188
G1 X125.383 Y81.389 E2.79323
G1 X111.9 Y81.389 E3.4659
G1 X111.9 Y83.578 E3.57511
G1 X111.823 Y84.327 E3.61268
G1 X111.742 Y84.66 E3.62977
G1 X111.523 Y85.241 E3.66075
G1 X111.363 Y85.546 E3.67793
G1 X111.012 Y86.051 E3.70862
G1 X110.484 Y86.588 E3.74619
G1 X109.754 Y87.062 E3.78961
G1 X109.455 Y87.197 E3.80598
G1 X108.866 Y87.382 E3.83678
G1 X108.142 Y87.482 E3.87324
G1 X99.01 Y87.489 E4.32884
G1 X98.265 Y87.412 E4.36621
G1 X97.939 Y87.333 E4.38294
G1 X97.369 Y87.121 E4.41328
G1 X97.067 Y86.965 E4.43024
G1 X96.555 Y86.615 E4.46118
G1 X96.297 Y86.387 E4.47836
G1 X95.893 Y85.931 E4.50875
G1 X95.482 Y85.258 E4.5481
G1 X95.273 Y85.029 E4.56356
G1 X94.904 Y84.804 E4.58513
G1 X94.549 Y84.367 E4.61322
G1 X94.409 Y84.064 E4.62987
G1 X94.34 Y83.631 E4.65174
G1 X94.341 Y71.469 E5.25851
G1 X94.408 Y70.7 E5.29702
G1 X94.542 Y70.377 E5.31446
G1 X94.726 Y70.098 E5.33114
G1 X95.152 Y69.693 E5.36046
G1 X95.346 Y68.54 E5.4188
G1 X95.555 Y67.575 E5.46806
G1 X95.715 Y66.98 E5.49879
G1 X96.029 Y66.025 E5.54895
G1 X96.248 Y65.455 E5.57941
G1 X96.655 Y64.549 E5.62897
G1 X96.931 Y64.005 E5.6594
G1 X97.443 Y63.128 E5.71006
G0 F3600 X97.788 Y63.331
G1 F1800 X98.102 Y62.844 E5.73897
G1 X98.68 Y62.055 E5.78777
G1 X99.058 Y61.59 E5.81766
G1 X99.719 Y60.862 E5.86672
G1 X100.139 Y60.442 E5.89636
G1 X100.86 Y59.798 E5.94459
G1 X101.32 Y59.425 E5.97413
G1 X102.124 Y58.847 E6.02353
G1 X102.613 Y58.529 E6.05264
G1 X103.472 Y58.039 E6.10197
G1 X103.987 Y57.775 E6.13085
G1 X104.888 Y57.381 E6.17991
G1 X105.437 Y57.169 E6.20927
G1 X106.382 Y56.868 E6.25875
G1 X106.942 Y56.718 E6.28767
G1 X107.906 Y56.518 E6.33679
G1 X108.451 Y56.462 E6.36412
G1 X109.189 Y56.544 E6.40117
G1 X109.939 Y56.835 E6.4413
G1 X110.59 Y57.317 E6.48172
G1 X110.78 Y57.521 E6.49562
G1 X111.094 Y57.97 E6.52296
G1 X111.401 Y58.731 E6.5639
G1 X111.494 Y59.356 E6.59542
G1 X111.5 Y62.189 E6.73676
G1 X125.383 Y62.189 E7.42939
G1 X125.662 Y62.229 E7.44345
G1 X125.919 Y62.345 E7.45752
G1 X126.207 Y62.599 E7.47667
G1 X126.376 Y62.825 E7.49075
G1 X126.476 Y63.089 E7.50484
G1 X126.5 Y79.872 E8.34215
G1 X126.46 Y80.151 E8.35621
G1 X126.344 Y80.408 E8.37028
G1 X126.09 Y80.696 E8.38943
G1 X125.864 Y80.865 E8.40351
G1 X125.6 Y80.965 E8.4176
G1 X111.5 Y80.989 E9.12105
G1 X111.5 Y83.578 E9.25022
G1 X111.425 Y84.281 E9.28549
G1 X111.149 Y85.1 E9.32861
G1 X110.683 Y85.823 E9.37152
G1 X110.21 Y86.297 E9.40493
G1 X109.549 Y86.719 E9.44405
G1 X108.746 Y87 E9.4865
G1 X108.103 Y87.084 E9.51885
G1 X99.01 Y87.089 E9.9725
G1 X98.311 Y87.014 E10.00757
G1 X97.508 Y86.746 E10.04981
G1 X96.781 Y86.285 E10.09275
G1 X96.193 Y85.666 E10.13535
G1 X95.82 Y85.043 E10.17158
G1 X95.681 Y84.847 E10.18356
G1 X95.127 Y84.468 E10.21705
G1 X94.89 Y84.157 E10.23656
G1 X94.776 Y83.899 E10.25063
G1 X94.74 Y83.631 E10.26412
G1 X94.741 Y71.469 E10.87089
G1 X94.805 Y70.767 E10.90605
G1 X95.06 Y70.324 E10.93156
G1 X95.386 Y70.048 E10.95287
G1 X95.538 Y69.815 E10.96675
G1 X95.741 Y68.607 E11.02786
G1 X95.946 Y67.66 E11.0762
G1 X96.101 Y67.085 E11.10591
G1 X96.408 Y66.15 E11.15501
G1 X96.621 Y65.6 E11.18443
G1 X97.019 Y64.714 E11.23289
G1 X97.287 Y64.186 E11.26243
G1 X97.788 Y63.331 E11.31187
G0 F3600 X98.133 Y63.533
G1 F1800 X98.438 Y63.062 E11.33987
G1 X99.002 Y62.291 E11.38752
G1 X99.368 Y61.843 E11.41639
G1 X100.015 Y61.132 E11.46435
G1 X100.421 Y60.725 E11.49303
G1 X101.126 Y60.097 E11.54013
G1 X101.572 Y59.736 E11.56876
G1 X102.357 Y59.172 E11.61698
G1 X102.83 Y58.865 E11.64511
G1 X103.67 Y58.387 E11.69333
G1 X104.169 Y58.132 E11.72129
G1 X105.047 Y57.748 E11.7691
G1 X105.58 Y57.543 E11.79759
G1 X106.503 Y57.249 E11.84592
G1 X107.045 Y57.104 E11.87391
G1 X107.987 Y56.909 E11.9219
G1 X108.487 Y56.86 E11.94697
G1 X109.129 Y56.94 E11.97924
G1 X109.778 Y57.202 E12.01416
G1 X110.338 Y57.628 E12.04926
G1 X110.767 Y58.199 E12.0849
G1 X111.024 Y58.864 E12.12046
G1 X111.097 Y59.398 E12.14735
G1 X111.1 Y62.589 E12.30655
G1 X125.383 Y62.589 E13.01914
G1 X125.598 Y62.629 E13.03005
G1 X125.924 Y62.882 E13.05063
G1 X126.048 Y63.061 E13.0615
G1 X126.1 Y63.306 E13.07399
G1 X126.1 Y79.872 E13.90047
G1 X126.06 Y80.087 E13.91138
G1 X125.807 Y80.413 E13.93197
G1 X125.628 Y80.537 E13.94284
G1 X125.383 Y80.589 E13.95533
G1 X111.1 Y80.589 E14.66791
G1 X111.1 Y83.578 E14.81703
G1 X111.028 Y84.235 E14.85001
G1 X110.774 Y84.959 E14.88829
G1 X110.355 Y85.594 E14.92624
G1 X109.936 Y86.005 E14.95552
G1 X109.343 Y86.376 E14.99042
G1 X108.626 Y86.618 E15.02818
G1 X108.064 Y86.686 E15.05642
G1 X99.01 Y86.689 E15.50813
G1 X98.357 Y86.617 E15.5409
G1 X97.648 Y86.371 E15.57834
G1 X97.006 Y85.954 E15.61653
G1 X96.492 Y85.401 E15.6542
G1 X96.16 Y84.831 E15.68711
G1 X95.976 Y84.571 E15.703
G1 X95.708 Y84.351 E15.7203
G1 X95.361 Y84.137 E15.74064
G1 X95.23 Y83.947 E15.75215
G1 X95.14 Y83.631 E15.76855
G1 X95.141 Y71.469 E16.37531
G1 X95.155 Y71.059 E16.39578
G1 X95.257 Y70.735 E16.41272
G1 X95.419 Y70.535 E16.42556
G1 X95.675 Y70.33 E16.44193
G1 X95.923 Y69.934 E16.46524
G1 X96.135 Y68.673 E16.52903
G1 X96.337 Y67.745 E16.57641
G1 X96.487 Y67.19 E16.6051
G1 X96.788 Y66.276 E16.65311
G1 X96.994 Y65.745 E16.68152
G1 X97.384 Y64.878 E16.72895
G1 X97.644 Y64.368 E16.75751
G1 X98.133 Y63.533 E16.80579
G0 F3600 X98.478 Y63.736
G1 F1800 X98.773 Y63.28 E16.83288
G1 X99.325 Y62.528 E16.87942
G1 X99.677 Y62.096 E16.90722
G1 X100.31 Y61.401 E16.95412
G1 X100.704 Y61.008 E16.98189
G1 X101.392 Y60.396 E17.02783
G1 X101.823 Y60.047 E17.05549
G1 X102.59 Y59.497 E17.10258
G1 X103.047 Y59.201 E17.12975
G1 X103.867 Y58.735 E17.1768
G1 X104.351 Y58.488 E17.20391
G1 X105.207 Y58.115 E17.25049
G1 X105.723 Y57.916 E17.27809
G1 X106.624 Y57.63 E17.32525
G1 X107.148 Y57.491 E17.35229
G1 X108.068 Y57.301 E17.39916
G1 X108.523 Y57.259 E17.42196
G1 X109.07 Y57.335 E17.44951
G1 X109.617 Y57.568 E17.47917
G1 X110.087 Y57.939 E17.50905
G1 X110.439 Y58.428 E17.53911
G1 X110.647 Y58.997 E17.56933
G1 X110.7 Y59.461 E17.59263
G1 X110.7 Y62.989 E17.76864
G1 X125.383 Y62.989 E18.50118
G1 X125.524 Y63.048 E18.50881
G1 X125.641 Y63.165 E18.51706
G1 X125.7 Y63.306 E18.52469
G1 X125.7 Y79.872 E19.35117
G1 X125.641 Y80.013 E19.35879
G1 X125.524 Y80.13 E19.36705
G1 X125.383 Y80.189 E19.37467
G1 X110.7 Y80.189 E20.10721
G1 X110.7 Y83.578 E20.27629
G1 X110.631 Y84.189 E20.30697
G1 X110.4 Y84.818 E20.3404
G1 X110.026 Y85.366 E20.3735
G1 X109.663 Y85.713 E20.39855
G1 X109.138 Y86.033 E20.42922
G1 X108.506 Y86.237 E20.46236
G1 X108.006 Y86.289 E20.48744
G1 X99.01 Y86.289 E20.93625
G1 X98.404 Y86.22 E20.96668
G1 X97.787 Y85.996 E20.99943
G1 X97.232 Y85.624 E21.03276
G1 X96.791 Y85.136 E21.06557
G1 X96.498 Y84.616 E21.09535
G1 X96.272 Y84.297 E21.11486
G1 X95.927 Y84.013 E21.13715
G1 X95.63 Y83.833 E21.15448
G1 X95.54 Y83.631 E21.16551
G1 X95.541 Y71.469 E21.77227
G1 X95.576 Y70.992 E21.79614
G1 X95.669 Y70.847 E21.80473
G1 X95.967 Y70.609 E21.82376
G1 X96.197 Y70.3 E21.84297
G1 X96.31 Y70.048 E21.85675
G1 X96.53 Y68.74 E21.92293
G1 X96.728 Y67.83 E21.96939
G1 X96.873 Y67.295 E21.99704
G1 X97.168 Y66.401 E22.04401
G1 X97.367 Y65.89 E22.07137
G1 X97.749 Y65.043 E22.11772
G1 X98 Y64.55 E22.14532
G1 X98.478 Y63.736 E22.19242
G1 F1500 E15.69242
;MESH:schieberdeckel2.3mf
G0 F3600 X99.452 Y63.739
G0 X109.8 Y63.389
G0 X110.3 Y63.389
;TYPE:WALL-OUTER
G1 F1500 E22.19242
G1 F1800 X125.3 Y63.389 E22.94077
G1 X125.3 Y79.789 E23.75897
G1 X110.3 Y79.789 E24.50732
G1 X110.3 Y83.573 E24.69611
G1 X110.234 Y84.132 E24.72419
G1 X110.032 Y84.662 E24.75249
G1 X109.703 Y85.131 E24.78107
G1 X109.416 Y85.4 E24.8007
G1 X108.942 Y85.684 E24.82826
G1 X108.396 Y85.852 E24.85676
G1 X107.993 Y85.889 E24.87695
G1 X99.015 Y85.889 E25.32487
G1 X98.463 Y85.824 E25.3526
G1 X97.939 Y85.626 E25.38054
G1 X97.471 Y85.303 E25.40891
G1 X97.099 Y84.88 E25.43702
G1 X96.836 Y84.401 E25.46428
G1 X96.568 Y84.023 E25.4874
G1 X96.143 Y83.674 E25.51483
G1 X95.94 Y83.574 E25.52612
G1 X95.941 Y71.471 E26.12994
G1 X95.953 Y71.132 E26.14687
G1 X96.254 Y70.891 E26.16611
G1 X96.548 Y70.496 E26.19067
G1 X96.695 Y70.168 E26.2086
G1 X96.924 Y68.809 E26.27736
G1 X97.118 Y67.919 E26.32281
G1 X97.258 Y67.403 E26.34948
G1 X97.547 Y66.529 E26.39541
G1 X97.737 Y66.039 E26.42162
G1 X98.112 Y65.21 E26.46702
G1 X98.356 Y64.734 E26.4937
G1 X98.821 Y63.94 E26.53961
G1 X99.108 Y63.499 E26.56586
G1 X99.647 Y62.766 E26.61125
G1 X99.985 Y62.352 E26.63792
G1 X100.604 Y61.672 E26.68379
G1 X100.985 Y61.293 E26.7106
G1 X101.656 Y60.696 E26.75541
G1 X102.073 Y60.36 E26.78213
G1 X102.821 Y59.824 E26.82804
G1 X103.263 Y59.539 E26.85428
G1 X104.063 Y59.084 E26.90019
G1 X104.531 Y58.846 E26.92639
G1 X105.365 Y58.482 E26.97179
G1 X105.865 Y58.291 E26.99849
G1 X106.742 Y58.012 E27.0444
G1 X107.249 Y57.877 E27.07058
G1 X108.142 Y57.694 E27.11606
G1 X108.524 Y57.658 E27.1352
G1 X108.994 Y57.728 E27.15891
G1 X109.446 Y57.929 E27.18359
G1 X109.821 Y58.238 E27.20783
G1 X110.104 Y58.647 E27.23264
G1 X110.264 Y59.114 E27.25727
G1 X110.3 Y59.467 E27.27497
G1 X110.3 Y63.389 E27.47064
G0 F3600 X110.5 Y63.389
G0 X109.9 Y63.789
;TYPE:WALL-INNER
G1 F1800 X124.9 Y63.789 E28.219
G1 X124.9 Y79.389 E28.99728
G1 X109.9 Y79.389 E29.74564
G1 X109.9 Y83.551 E29.95328
G1 X109.843 Y84.035 E29.97759
G1 X109.676 Y84.474 E30.00103
G1 X109.401 Y84.865 E30.02487
G1 X109.172 Y85.08 E30.04055
G1 X108.777 Y85.316 E30.0635
G1 X108.318 Y85.458 E30.08747
G1 X107.978 Y85.489 E30.10451
G1 X99.037 Y85.489 E30.55057
G1 X98.558 Y85.433 E30.57463
G1 X98.126 Y85.269 E30.59769
G1 X97.738 Y85.002 E30.62118
G1 X97.431 Y84.652 E30.64441
G1 X97.176 Y84.188 E30.67083
G1 X96.863 Y83.748 E30.69777
G1 X96.361 Y83.336 E30.73017
G1 X96.34 Y83.326 E30.73133
G1 X96.341 Y71.485 E31.32208
G1 X96.347 Y71.329 E31.32986
G1 X96.544 Y71.171 E31.34246
G1 X96.895 Y70.7 E31.37177
G1 X97.081 Y70.285 E31.39446
G1 X97.315 Y68.894 E31.46483
G1 X97.509 Y68.004 E31.51028
G1 X97.638 Y67.529 E31.53483
G1 X97.927 Y66.655 E31.58076
G1 X98.11 Y66.184 E31.60597
G1 X98.468 Y65.392 E31.64933
G1 X98.707 Y64.926 E31.67546
G1 X99.166 Y64.142 E31.72078
G1 X99.436 Y63.728 E31.74544
G1 X99.957 Y63.019 E31.78934
G1 X100.29 Y62.611 E31.81561
G1 X100.886 Y61.956 E31.85979
G1 X101.26 Y61.584 E31.88611
G1 X101.922 Y60.995 E31.93032
G1 X102.312 Y60.681 E31.9553
G1 X103.044 Y60.156 E32.00024
G1 X103.461 Y59.887 E32.025
G1 X104.255 Y59.435 E32.07058
G1 X104.7 Y59.209 E32.09548
G1 X105.516 Y58.853 E32.13989
G1 X106.008 Y58.665 E32.16617
G1 X106.845 Y58.399 E32.20999
G1 X107.347 Y58.265 E32.23591
G1 X108.204 Y58.09 E32.27955
G1 X108.511 Y58.061 E32.29493
G1 X108.883 Y58.116 E32.31369
G1 X109.233 Y58.272 E32.33281
G1 X109.523 Y58.511 E32.35156
G1 X109.744 Y58.831 E32.37096
G1 X109.87 Y59.199 E32.39037
G1 X109.9 Y59.488 E32.40486
G1 X109.9 Y63.789 E32.61944
G0 F3600 X109.5 Y64.189
G1 F1800 X124.5 Y64.189 E33.36779
G1 X124.5 Y78.989 E34.10617
G1 X109.5 Y78.989 E34.85452
G1 X109.5 Y83.529 E35.08102
G1 X109.452 Y83.938 E35.10157
G1 X109.32 Y84.286 E35.12014
G1 X109.099 Y84.599 E35.13925
G1 X108.927 Y84.761 E35.15104
G1 X108.614 Y84.948 E35.16923
G1 X108.239 Y85.064 E35.18881
G1 X107.964 Y85.089 E35.20259
G1 X99.057 Y85.089 E35.64696
G1 X98.655 Y85.042 E35.66715
G1 X98.315 Y84.913 E35.6853
G1 X98.006 Y84.7 E35.70402
G1 X97.761 Y84.421 E35.72254
G1 X97.515 Y83.975 E35.74796
G1 X97.158 Y83.473 E35.77869
G1 X96.74 Y83.13 E35.80566
G1 X96.741 Y71.526 E36.38459
G1 X96.834 Y71.451 E36.39055
G1 X97.242 Y70.904 E36.4246
G1 X97.467 Y70.402 E36.45204
G1 X97.706 Y68.979 E36.52403
G1 X97.9 Y68.089 E36.56948
G1 X98.018 Y67.655 E36.59191
G1 X98.307 Y66.781 E36.63784
G1 X98.483 Y66.329 E36.66204
G1 X98.824 Y65.575 E36.70332
G1 X99.063 Y65.109 E36.72945
G1 X99.501 Y64.361 E36.7727
G1 X99.771 Y63.947 E36.79736
G1 X100.267 Y63.272 E36.83915
G1 X100.595 Y62.87 E36.86503
G1 X101.168 Y62.24 E36.90752
G1 X101.535 Y61.875 E36.93334
G1 X102.173 Y61.307 E36.97596
G1 X102.563 Y60.993 E37.00094
G1 X103.268 Y60.488 E37.0442
G1 X103.659 Y60.235 E37.06744
G1 X104.447 Y59.786 E37.11268
G1 X104.869 Y59.572 E37.13629
G1 X105.667 Y59.224 E37.17972
G1 X106.151 Y59.039 E37.20558
G1 X106.962 Y58.781 E37.24803
G1 X107.429 Y58.657 E37.27214
G1 X108.265 Y58.486 E37.31471
G1 X108.498 Y58.464 E37.32639
G1 X108.772 Y58.504 E37.3402
G1 X109.02 Y58.615 E37.35376
G1 X109.226 Y58.785 E37.36708
G1 X109.384 Y59.013 E37.38092
G1 X109.477 Y59.284 E37.39522
G1 X109.5 Y59.51 E37.40655
G1 X109.5 Y64.189 E37.63999
G0 F3600 X109.11 Y64.579
;TYPE:SKIN
G1 F1800 X124.11 Y64.579 E38.38834
G1 X124.11 Y78.599 E39.0878
G1 X109.11 Y78.599 E39.83615
G1 X109.11 Y83.502 E40.08077
G1 X109.07 Y83.844 E40.09794
G1 X108.97 Y84.107 E40.11198
G1 X108.808 Y84.337 E40.12602
G1 X108.691 Y84.447 E40.13403
G1 X108.453 Y84.59 E40.14788
G1 X108.16 Y84.68 E40.16317
G1 X107.951 Y84.699 E40.17364
G1 X99.084 Y84.699 E40.61602
G1 X98.749 Y84.66 E40.63285
G1 X98.497 Y84.564 E40.6463
G1 X98.266 Y84.405 E40.66029
G1 X98.08 Y84.193 E40.67436
G1 X97.846 Y83.767 E40.69861
G1 X97.446 Y83.204 E40.73306
G1 X97.13 Y82.945 E40.75345
G1 X97.131 Y71.704 E41.31426
G1 X97.58 Y71.103 E41.35169
G1 X97.843 Y70.515 E41.38383
G1 X98.087 Y69.062 E41.45733
G1 X98.279 Y68.181 E41.50232
G1 X98.388 Y67.778 E41.52315
G1 X98.674 Y66.913 E41.5686
G1 X98.842 Y66.48 E41.59177
G1 X99.171 Y65.753 E41.63158
G1 X99.4 Y65.306 E41.65664
G1 X99.828 Y64.574 E41.69894
G1 X100.098 Y64.16 E41.7236
G1 X100.569 Y63.518 E41.76333
G1 X100.884 Y63.133 E41.78814
G1 X101.457 Y62.503 E41.83063
G1 X101.81 Y62.152 E41.85547
G1 X102.417 Y61.611 E41.89603
G1 X102.798 Y61.304 E41.92044
G1 X103.48 Y60.816 E41.96228
G1 X103.867 Y60.566 E41.98527
G1 X104.64 Y60.125 E42.02967
G1 X105.025 Y59.929 E42.05122
G1 X105.814 Y59.585 E42.09416
G1 X106.27 Y59.411 E42.11851
G1 X107.088 Y59.151 E42.16134
G1 X107.518 Y59.037 E42.18353
G1 X108.324 Y58.872 E42.22457
G1 X108.486 Y58.856 E42.2327
G1 X108.66 Y58.882 E42.24147
G1 X108.817 Y58.952 E42.25005
