; generated by PrusaSlicer 2.2.0+ on 2020-07-16 at 10:05:39 UTC


;
;

;
;
; speeds slowed down for ninjaflex

; external perimeters extrusion width = 0.45mm
; perimeters extrusion width = 0.45mm
; infill extrusion width = 0.45mm
; solid infill extrusion width = 0.45mm
; top infill extrusion width = 0.40mm
; first layer extrusion width = 0.42mm

M73 P0 R65
M73 Q0 S65
M201 X1000 Y1000 Z1000 E5000 ; sets maximum accelerations, mm/sec^2
M203 X200 Y200 Z12 E120 ; sets maximum feedrates, mm/sec
M204 P1250 R1250 T1250 ; sets acceleration (P, T) and retract acceleration (R), mm/sec^2
M205 X8.00 Y8.00 Z0.40 E1.50 ; sets the jerk limits, mm/sec
M205 S0 T0 ; sets the minimum extruding and travel feed rate, mm/sec
M107 ; disable fan
;; my version of RLG's fancy start g-code is too slow, and the bed heats up more than needed for flex (80°, I'm printing at 40°), and cooling down takes too long.
;; this is the default:
M862.3 P "MK3S" ; printer model check
M862.1 P0.4 ; nozzle diameter check
M115 U3.8.1 ; tell printer latest fw version
G90 ; use absolute coordinates
M83 ; extruder relative mode
M104 S227 ; set extruder temp
M140 S45 ; set bed temp
M190 S45 ; wait for bed temp
M109 S227 ; wait for extruder temp

G1 E-2 ; retract to avoid leaving blobs
M73 Q0 S65
M73 P0 R65

G28 W ; home all without mesh bed level
G80 ; mesh bed leveling

G1 Y-3.0 F1000.0 ; go outside print area
G1 E3 ; deretract

G92 E0.0
G1 X60.0 E9.0 F1000.0 ; intro line
G1 X100.0 E12.5 F1000.0 ; intro line
G92 E0.0
M221 S95
G21 ; set units to millimeters
G90 ; use absolute coordinates
M83 ; use relative distances for extrusion
; Filament gcode
M900 K30
;BEFORE_LAYER_CHANGE
G92 E0.0
;0.2


G1 Z0.200 F3600.000 ; move to next layer (0)
;AFTER_LAYER_CHANGE
;0.2
G1 X143.684 Y90.295 ; move to first perimeter point
M204 S1000 ; adjust acceleration
G1 F900.000
G1 X144.322 Y89.549 E0.03599 ; perimeter
G1 X144.576 Y88.661 E0.03387 ; perimeter
G1 X144.661 Y88.140 E0.01934 ; perimeter
G1 X144.751 Y87.769 E0.01399 ; perimeter
G1 X144.810 Y87.304 E0.01721 ; perimeter
G1 X144.800 Y86.931 E0.01368 ; perimeter
G1 X144.621 Y86.032 E0.03362 ; perimeter
G1 X144.625 Y85.819 E0.00778 ; perimeter
G1 X144.661 Y85.594 E0.00838 ; perimeter
G1 X144.743 Y85.404 E0.00758 ; perimeter
G1 X144.893 Y85.212 E0.00891 ; perimeter
G1 X145.106 Y85.039 E0.01006 ; perimeter
G1 X145.366 Y84.916 E0.01056 ; perimeter
G1 X145.660 Y84.844 E0.01110 ; perimeter
G1 X145.981 Y84.834 E0.01178 ; perimeter
G1 X146.313 Y84.893 E0.01236 ; perimeter
G1 X146.595 Y85.021 E0.01137 ; perimeter
G1 X146.842 Y85.223 E0.01168 ; perimeter
G1 X147.038 Y85.475 E0.01172 ; perimeter
G1 X147.173 Y85.747 E0.01112 ; perimeter
G1 X147.242 Y86.016 E0.01016 ; perimeter
G1 X147.251 Y86.260 E0.00896 ; perimeter
G1 X147.209 Y86.477 E0.00808 ; perimeter
G1 X147.121 Y86.672 E0.00786 ; perimeter
G1 X147.002 Y86.846 E0.00773 ; perimeter
G1 X146.880 Y86.966 E0.00628 ; perimeter
G1 X146.196 Y87.368 E0.02906 ; perimeter
G1 X145.874 Y87.624 E0.01511 ; perimeter
G1 X145.609 Y87.942 E0.01516 ; perimeter
G1 X145.332 Y88.394 E0.01945 ; perimeter
G1 X145.063 Y88.943 E0.02241 ; perimeter
G1 X144.716 Y89.744 E0.03200 ; perimeter
G1 X144.603 Y90.180 E0.01652 ; perimeter
G1 X144.638 Y90.576 E0.01458 ; perimeter
G1 X144.737 Y90.873 E0.01147 ; perimeter
G1 X144.888 Y91.205 E0.01338 ; perimeter
G1 X144.979 Y91.388 E0.00751 ; perimeter
G1 X145.105 Y91.552 E0.00755 ; perimeter
G1 X145.297 Y91.924 E0.01534 ; perimeter
G1 X145.751 Y92.171 E0.01897 ; perimeter
G1 X146.140 Y92.163 E0.01424 ; perimeter
G1 X146.985 Y92.028 E0.03139 ; perimeter
G1 X147.412 Y91.905 E0.01631 ; perimeter
G1 X147.824 Y91.711 E0.01667 ; perimeter
G1 X148.243 Y91.422 E0.01866 ; perimeter
G1 X148.580 Y91.228 E0.01426 ; perimeter
G1 X148.806 Y91.153 E0.00873 ; perimeter
G1 X148.998 Y91.133 E0.00709 ; perimeter
G1 X149.206 Y91.171 E0.00776 ; perimeter
G1 X149.432 Y91.277 E0.00914 ; perimeter
G1 X149.649 Y91.461 E0.01045 ; perimeter
G1 X149.832 Y91.711 E0.01136 ; perimeter
G1 X149.956 Y92.000 E0.01152 ; perimeter
G1 X150.009 Y92.286 E0.01066 ; perimeter
G1 X149.991 Y92.558 E0.01002 ; perimeter
G1 X149.921 Y92.794 E0.00901 ; perimeter
G1 X149.803 Y92.982 E0.00812 ; perimeter
G1 X149.644 Y93.140 E0.00823 ; perimeter
G1 X149.469 Y93.253 E0.00765 ; perimeter
G1 X149.261 Y93.332 E0.00816 ; perimeter
G1 X149.051 Y93.374 E0.00784 ; perimeter
G1 X148.839 Y93.375 E0.00778 ; perimeter
G1 X148.643 Y93.339 E0.00731 ; perimeter
G1 X148.480 Y93.279 E0.00637 ; perimeter
G1 X147.880 Y92.949 E0.02511 ; perimeter
G1 X147.308 Y92.736 E0.02236 ; perimeter
G1 X146.946 Y92.683 E0.01344 ; perimeter
G1 X146.281 Y92.674 E0.02436 ; perimeter
G1 X145.504 Y92.773 E0.02872 ; perimeter
G1 X145.230 Y92.862 E0.01058 ; perimeter
G1 X144.523 Y93.329 E0.03105 ; perimeter
G1 X144.125 Y93.711 E0.02023 ; perimeter
G1 X143.741 Y94.007 E0.01779 ; perimeter
G1 X143.286 Y94.316 E0.02013 ; perimeter
G1 X142.813 Y94.558 E0.01952 ; perimeter
G1 X142.638 Y94.625 E0.00684 ; perimeter
G1 X142.012 Y94.728 E0.02326 ; perimeter
G1 X141.836 Y94.787 E0.00682 ; perimeter
G1 X141.638 Y94.870 E0.00786 ; perimeter
G1 X141.231 Y95.141 E0.01792 ; perimeter
G1 X141.221 Y94.149 E0.03636 ; perimeter
G1 X141.091 Y93.446 E0.02622 ; perimeter
G1 X140.823 Y92.349 E0.04140 ; perimeter
G1 X140.741 Y91.816 E0.01977 ; perimeter
G1 X140.569 Y91.426 E0.01562 ; perimeter
G1 X139.994 Y90.623 E0.03622 ; perimeter
G1 X139.787 Y90.278 E0.01475 ; perimeter
G1 X139.466 Y89.922 E0.01755 ; perimeter
G1 X139.002 Y89.658 E0.01960 ; perimeter
G1 X138.633 Y89.503 E0.01468 ; perimeter
G1 X138.434 Y89.380 E0.00855 ; perimeter
G1 X138.152 Y89.127 E0.01388 ; perimeter
G1 X138.024 Y88.936 E0.00842 ; perimeter
G1 X137.911 Y88.677 E0.01037 ; perimeter
G1 X137.849 Y88.378 E0.01120 ; perimeter
G1 X137.854 Y88.066 E0.01144 ; perimeter
G1 X137.954 Y87.754 E0.01202 ; perimeter
G1 X138.136 Y87.462 E0.01259 ; perimeter
G1 X138.403 Y87.245 E0.01265 ; perimeter
G1 X138.739 Y87.102 E0.01338 ; perimeter
G1 X139.118 Y87.069 E0.01394 ; perimeter
G1 X139.498 Y87.135 E0.01414 ; perimeter
G1 X139.841 Y87.304 E0.01401 ; perimeter
G1 X140.113 Y87.531 E0.01300 ; perimeter
G1 X140.316 Y87.804 E0.01245 ; perimeter
G1 X140.418 Y87.986 E0.00766 ; perimeter
G1 X140.537 Y88.373 E0.01483 ; perimeter
G1 X140.533 Y88.879 E0.01856 ; perimeter
G1 X140.558 Y89.406 E0.01935 ; perimeter
G1 X140.697 Y89.858 E0.01734 ; perimeter
G1 X140.861 Y90.067 E0.00974 ; perimeter
G1 X141.019 Y90.217 E0.00796 ; perimeter
G1 X141.393 Y90.472 E0.01662 ; perimeter
G1 X141.657 Y90.578 E0.01041 ; perimeter
G1 X141.907 Y90.620 E0.00929 ; perimeter
G1 X142.336 Y90.620 E0.01574 ; perimeter
G1 X142.600 Y90.572 E0.00983 ; perimeter
G1 X143.002 Y90.446 E0.01544 ; perimeter
G1 X143.245 Y90.339 E0.00974 ; perimeter
G1 X143.508 Y90.139 E0.01212 ; perimeter
G1 X143.639 Y90.256 E0.00642 ; perimeter
G1 X143.647 Y89.758 F3600.000 ; move to first perimeter point
G1 F900.000
G1 X143.982 Y89.366 E0.01891 ; perimeter
G1 X144.207 Y88.578 E0.03005 ; perimeter
G1 X144.291 Y88.065 E0.01906 ; perimeter
G1 X144.380 Y87.701 E0.01375 ; perimeter
G1 X144.433 Y87.285 E0.01537 ; perimeter
G1 X144.424 Y86.973 E0.01143 ; perimeter
G1 X144.243 Y86.065 E0.03395 ; perimeter
G1 X144.249 Y85.785 E0.01025 ; perimeter
G1 X144.296 Y85.488 E0.01106 ; perimeter
G1 X144.416 Y85.210 E0.01110 ; perimeter
G1 X144.622 Y84.947 E0.01225 ; perimeter
G1 X144.903 Y84.718 E0.01326 ; perimeter
G1 X145.239 Y84.558 E0.01365 ; perimeter
G1 X145.609 Y84.469 E0.01396 ; perimeter
G1 X146.013 Y84.456 E0.01480 ; perimeter
G1 X146.425 Y84.530 E0.01537 ; perimeter
G1 X146.796 Y84.698 E0.01493 ; perimeter
G1 X147.114 Y84.958 E0.01504 ; perimeter
G1 X147.359 Y85.274 E0.01468 ; perimeter
G1 X147.528 Y85.615 E0.01395 ; perimeter
G1 X147.618 Y85.961 E0.01312 ; perimeter
G1 X147.629 Y86.289 E0.01203 ; perimeter
G1 X147.571 Y86.591 E0.01127 ; perimeter
G1 X147.451 Y86.857 E0.01070 ; perimeter
G1 X147.293 Y87.090 E0.01030 ; perimeter
G1 X147.118 Y87.260 E0.00894 ; perimeter
G1 X146.906 Y87.402 E0.00937 ; perimeter
G1 X146.407 Y87.682 E0.02096 ; perimeter
G1 X146.139 Y87.895 E0.01258 ; perimeter
G1 X145.916 Y88.162 E0.01274 ; perimeter
G1 X145.663 Y88.576 E0.01779 ; perimeter
G1 X145.406 Y89.102 E0.02145 ; perimeter
G1 X145.073 Y89.867 E0.03060 ; perimeter
G1 X144.984 Y90.211 E0.01303 ; perimeter
G1 X145.010 Y90.499 E0.01058 ; perimeter
G1 X145.089 Y90.735 E0.00913 ; perimeter
G1 X145.301 Y91.188 E0.01834 ; perimeter
G1 X145.424 Y91.349 E0.00743 ; perimeter
G1 X145.579 Y91.648 E0.01234 ; perimeter
G1 X145.844 Y91.792 E0.01105 ; perimeter
G1 X146.106 Y91.786 E0.00961 ; perimeter
G1 X146.903 Y91.659 E0.02959 ; perimeter
G1 X147.279 Y91.551 E0.01436 ; perimeter
G1 X147.635 Y91.383 E0.01444 ; perimeter
G1 X148.041 Y91.103 E0.01808 ; perimeter
G1 X148.424 Y90.882 E0.01621 ; perimeter
G1 X148.726 Y90.782 E0.01166 ; perimeter
G1 X149.013 Y90.752 E0.01060 ; perimeter
G1 X149.322 Y90.809 E0.01151 ; perimeter
G1 X149.637 Y90.957 E0.01276 ; perimeter
G1 X149.927 Y91.203 E0.01394 ; perimeter
G1 X150.162 Y91.523 E0.01456 ; perimeter
G1 X150.320 Y91.890 E0.01463 ; perimeter
G1 X150.389 Y92.264 E0.01395 ; perimeter
G1 X150.364 Y92.625 E0.01327 ; perimeter
G1 X150.268 Y92.951 E0.01245 ; perimeter
G1 X150.099 Y93.219 E0.01161 ; perimeter
G1 X149.882 Y93.436 E0.01127 ; perimeter
G1 X149.639 Y93.591 E0.01056 ; perimeter
G1 X149.366 Y93.695 E0.01073 ; perimeter
G1 X149.090 Y93.751 E0.01031 ; perimeter
G1 X148.805 Y93.753 E0.01043 ; perimeter
G1 X148.543 Y93.704 E0.00979 ; perimeter
G1 X148.323 Y93.623 E0.00858 ; perimeter
G1 X147.722 Y93.293 E0.02515 ; perimeter
G1 X147.214 Y93.103 E0.01987 ; perimeter
G1 X146.916 Y93.060 E0.01106 ; perimeter
G1 X146.302 Y93.051 E0.02248 ; perimeter
G1 X145.587 Y93.142 E0.02644 ; perimeter
G1 X145.395 Y93.205 E0.00741 ; perimeter
G1 X144.759 Y93.625 E0.02792 ; perimeter
G1 X144.371 Y93.997 E0.01972 ; perimeter
G1 X143.962 Y94.313 E0.01896 ; perimeter
G1 X143.479 Y94.641 E0.02140 ; perimeter
G1 X142.967 Y94.903 E0.02110 ; perimeter
G1 X142.738 Y94.991 E0.00900 ; perimeter
G1 X142.103 Y95.095 E0.02357 ; perimeter
G1 X141.969 Y95.140 E0.00518 ; perimeter
G1 X141.818 Y95.204 E0.00603 ; perimeter
G1 X141.239 Y95.589 E0.02548 ; perimeter
G1 X141.059 Y95.633 E0.00681 ; perimeter
G1 X140.959 Y95.577 E0.00418 ; perimeter
G1 X140.856 Y95.314 E0.01036 ; perimeter
G1 X140.844 Y94.186 E0.04137 ; perimeter
G1 X140.722 Y93.525 E0.02463 ; perimeter
G1 X140.453 Y92.423 E0.04161 ; perimeter
G1 X140.376 Y91.923 E0.01855 ; perimeter
G1 X140.240 Y91.614 E0.01237 ; perimeter
G1 X139.679 Y90.830 E0.03533 ; perimeter
G1 X139.482 Y90.503 E0.01398 ; perimeter
G1 X139.227 Y90.220 E0.01399 ; perimeter
G1 X138.835 Y89.997 E0.01654 ; perimeter
G1 X138.459 Y89.839 E0.01493 ; perimeter
G1 X138.207 Y89.683 E0.01087 ; perimeter
G1 X137.865 Y89.376 E0.01684 ; perimeter
G1 X137.693 Y89.119 E0.01137 ; perimeter
G1 X137.550 Y88.792 E0.01306 ; perimeter
G1 X137.472 Y88.413 E0.01418 ; perimeter
G1 X137.478 Y88.005 E0.01499 ; perimeter
G1 X137.609 Y87.594 E0.01578 ; perimeter
G1 X137.849 Y87.210 E0.01662 ; perimeter
G1 X138.206 Y86.918 E0.01691 ; perimeter
G1 X138.647 Y86.731 E0.01753 ; perimeter
G1 X139.134 Y86.689 E0.01794 ; perimeter
G1 X139.616 Y86.773 E0.01792 ; perimeter
G1 X140.048 Y86.986 E0.01765 ; perimeter
G1 X140.389 Y87.270 E0.01629 ; perimeter
G1 X140.633 Y87.598 E0.01497 ; perimeter
G1 X140.765 Y87.833 E0.00989 ; perimeter
G1 X140.911 Y88.321 E0.01867 ; perimeter
G1 X140.932 Y89.340 E0.03737 ; perimeter
G1 X141.037 Y89.680 E0.01304 ; perimeter
G1 X141.256 Y89.922 E0.01197 ; perimeter
G1 X141.572 Y90.137 E0.01400 ; perimeter
G1 X141.759 Y90.213 E0.00741 ; perimeter
G1 X141.938 Y90.243 E0.00666 ; perimeter
G1 X142.302 Y90.243 E0.01333 ; perimeter
G1 X142.509 Y90.205 E0.00772 ; perimeter
G1 X142.869 Y90.093 E0.01382 ; perimeter
G1 X143.052 Y90.012 E0.00734 ; perimeter
G1 X143.295 Y89.828 E0.01117 ; perimeter
G1 X143.478 Y89.609 E0.01046 ; perimeter
G1 X143.602 Y89.719 E0.00606 ; perimeter
G1 X144.014 Y89.917 F3600.000 ; move inwards before travel
G1 X144.386 Y89.882 ; move to first infill point
G1 F900.000
G1 X144.520 Y89.648 E0.00156 ; infill
G1 X144.618 Y89.375 E0.00272 ; infill
G1 X144.715 Y89.103 E0.00378 ; infill
G1 X144.815 Y88.826 E0.00494 ; infill
G1 X144.856 Y88.718 E0.00220 ; infill
G1 X144.921 Y88.513 E0.00493 ; infill
G1 X144.986 Y88.309 E0.00581 ; infill
G1 X145.437 Y88.006 F3600.000 ; move to first infill point
G1 F900.000
G1 X145.055 Y87.623 E0.02011 ; infill
G1 X145.094 Y87.318 E0.01143 ; infill
G1 X145.088 Y87.116 E0.00750 ; infill
G1 X145.547 Y87.575 E0.02410 ; infill
G1 X145.675 Y87.421 E0.00744 ; infill
G1 X145.819 Y87.307 E0.00683 ; infill
G1 X145.000 Y86.488 E0.04303 ; infill
G1 X144.904 Y86.007 E0.01822 ; infill
G1 X144.907 Y85.854 E0.00566 ; infill
G1 X146.132 Y87.079 E0.06437 ; infill
G1 X146.479 Y86.885 E0.01475 ; infill
G1 X145.056 Y85.463 E0.07474 ; infill
G1 X145.258 Y85.280 E0.01012 ; infill
G1 X145.364 Y85.230 E0.00434 ; infill
G1 X146.790 Y86.656 E0.07494 ; infill
G1 X146.873 Y86.533 E0.00552 ; infill
G1 X146.938 Y86.390 E0.00582 ; infill
G1 X146.958 Y86.284 E0.00403 ; infill
G1 X145.802 Y85.127 E0.06077 ; infill
G1 X146.012 Y85.128 E0.00780 ; infill
G1 X146.229 Y85.166 E0.00820 ; infill
G1 X146.445 Y85.264 E0.00881 ; infill
G1 X146.628 Y85.413 E0.00877 ; infill
G1 X147.089 Y85.874 E0.02424 ; infill
G1 X146.811 Y85.984 F3600.000 ; move to first infill point
G1 X149.560 Y92.143 ; move to first infill point
G1 X149.859 Y92.098 ; move to first infill point
G1 F900.000
G1 X149.278 Y91.517 E0.03299 ; infill
G1 X149.119 Y91.443 E0.00704 ; infill
G1 X148.986 Y91.418 E0.00543 ; infill
G1 X148.865 Y91.431 E0.00489 ; infill
G1 X148.676 Y91.499 E0.00806 ; infill
G1 X149.705 Y92.527 E0.05841 ; infill
G1 X149.661 Y92.677 E0.00626 ; infill
G1 X149.581 Y92.804 E0.00604 ; infill
G1 X149.489 Y92.895 E0.00520 ; infill
G1 X148.312 Y91.718 E0.06685 ; infill
G1 X147.966 Y91.956 E0.01686 ; infill
G1 X149.088 Y93.078 E0.06370 ; infill
G1 X148.864 Y93.092 E0.00901 ; infill
G1 X148.597 Y93.021 E0.01108 ; infill
G1 X148.263 Y92.837 E0.01534 ; infill
G1 X147.440 Y92.014 E0.04671 ; infill
G1 X147.056 Y92.353 F3600.000 ; move to first infill point
G1 F900.000
G1 X146.795 Y92.372 E0.00673 ; infill
G1 X146.533 Y92.390 E0.00577 ; infill
G1 X146.272 Y92.409 E0.00481 ; infill
G1 X145.959 Y92.440 E0.00461 ; infill
G1 X144.690 Y91.042 F3600.000 ; move to first infill point
G1 F900.000
G1 X144.004 Y90.356 E0.03600 ; infill
G1 X143.755 Y90.647 E0.01422 ; infill
G1 X145.585 Y92.477 E0.09609 ; infill
G1 X145.442 Y92.496 E0.00536 ; infill
G1 X145.156 Y92.588 E0.01115 ; infill
G1 X143.225 Y90.657 E0.10142 ; infill
G1 X142.826 Y90.798 E0.01572 ; infill
G1 X144.821 Y92.793 E0.10477 ; infill
G1 X144.496 Y93.008 E0.01447 ; infill
G1 X142.386 Y90.898 E0.11077 ; infill
G1 X141.844 Y90.896 E0.02014 ; infill
G1 X144.197 Y93.250 E0.12358 ; infill
G1 X143.920 Y93.512 E0.01418 ; infill
G1 X138.239 Y87.831 E0.29827 ; infill
G1 X138.351 Y87.652 E0.00785 ; infill
G1 X138.488 Y87.540 E0.00657 ; infill
G1 X140.271 Y89.323 E0.09362 ; infill
G1 X140.251 Y88.763 E0.02081 ; infill
G1 X138.863 Y87.375 E0.07288 ; infill
G1 X139.105 Y87.354 E0.00904 ; infill
G1 X139.409 Y87.407 E0.01145 ; infill
G1 X139.460 Y87.432 E0.00210 ; infill
G1 X140.423 Y88.395 E0.05058 ; infill
G1 X137.967 Y88.099 F3600.000 ; move to first infill point
G1 F900.000
G1 X143.736 Y93.868 E0.30290 ; infill
G1 X143.418 Y94.090 F3600.000 ; move to first infill point
G1 F900.000
G1 X140.976 Y91.648 E0.12822 ; infill
G1 X141.015 Y91.736 E0.00358 ; infill
G1 X141.107 Y92.319 E0.02190 ; infill
G1 X142.955 Y94.168 E0.09707 ; infill
G1 X142.589 Y94.341 E0.01505 ; infill
G1 X141.281 Y93.034 E0.06867 ; infill
G1 X141.430 Y93.722 E0.02614 ; infill
G1 X142.130 Y94.422 E0.03676 ; infill
G1 X141.944 Y94.452 E0.00697 ; infill
G1 X141.703 Y94.536 E0.00947 ; infill
G1 X141.334 Y94.167 E0.01937 ; infill
G1 X104.703 Y91.924 F3600.000 ; move to first perimeter point
G1 F900.000
G1 X104.896 Y91.551 E0.01539 ; perimeter
G1 X105.025 Y91.381 E0.00781 ; perimeter
