; generated by PrusaSlicer 2.2.0+ on 2020-05-30 at 20:39:21 UTC


;
;

;
;
; 

; external perimeters extrusion width = 0.45mm
; perimeters extrusion width = 0.45mm
; infill extrusion width = 0.45mm
; solid infill extrusion width = 0.45mm
; top infill extrusion width = 0.40mm
; first layer extrusion width = 0.42mm

M201 X9000 Y9000 Z500 E10000 ; sets maximum accelerations, mm/sec^2
M203 X500 Y500 Z12 E120 ; sets maximum feedrates, mm/sec
M204 P1500 R1500 T1500 ; sets acceleration (P, T) and retract acceleration (R), mm/sec^2
M205 X10.00 Y10.00 Z0.20 E2.50 ; sets the jerk limits, mm/sec
M205 S0 T0 ; sets the minimum extruding and travel feed rate, mm/sec
M107
M104 S200 ; set temperature
G28 ; home all axes
G1 Z5 F5000 ; lift nozzle
M109 S200 ; set temperature and wait for it to be reached
G21 ; set units to millimeters
G90 ; use absolute coordinates
M82 ; use absolute distances for extrusion
G92 E0
; Filament gcode
G1 Z0.350 F7800.000
G1 E-2.00000 F2400.00000
G92 E0
G1 X104.942 Y55.411 F7800.000
G1 E2.00000 F2400.00000
G1 F1800.000
G1 X105.767 Y54.317 E2.06876
G1 X106.823 Y53.325 E2.14145
G1 X107.994 Y52.558 E2.21171
G1 X109.273 Y52.002 E2.28172
G1 X110.656 Y51.666 E2.35313
G1 X111.991 Y51.573 E2.42028
G1 X113.061 Y51.653 E2.47415
G1 X114.537 Y51.943 E2.54962
G1 X116.373 Y52.468 E2.64548
G1 X117.725 Y52.979 E2.71803
G1 X118.990 Y53.561 E2.78789
G1 X120.289 Y54.276 E2.86229
G1 X121.839 Y55.304 E2.95564
G1 X122.939 Y56.168 E3.02585
G1 X124.016 Y57.144 E3.09880
G1 X125.020 Y58.196 E3.17179
G1 X126.177 Y59.626 E3.26411
G1 X126.970 Y60.782 E3.33445
G1 X128.314 Y63.265 E3.47611
G1 X129.301 Y65.916 E3.61808
G1 X129.887 Y68.540 E3.75305
G1 X130.119 Y71.196 E3.88681
G1 X130.124 Y84.212 E4.54004
G1 X129.924 Y85.978 E4.62925
G1 X129.627 Y87.031 E4.68416
G1 X129.140 Y88.154 E4.74558
G1 X128.497 Y89.200 E4.80719
G1 X127.824 Y90.028 E4.86074
G1 X126.932 Y90.873 E4.92241
G1 X125.941 Y91.576 E4.98339
G1 X124.990 Y92.077 E5.03735
G1 X123.824 Y92.508 E5.09972
G1 X122.691 Y92.754 E5.15792
G1 X121.698 Y92.846 E5.20794
G1 X112.391 Y92.852 E5.67507
G1 X111.188 Y92.767 E5.73555
G1 X109.898 Y92.485 E5.80182
G1 X108.850 Y92.096 E5.85795
G1 X107.966 Y91.640 E5.90786
G1 X107.006 Y90.984 E5.96618
G1 X106.232 Y90.296 E6.01817
G1 X105.499 Y89.465 E6.07378
G1 X104.911 Y88.601 E6.12619
G1 X104.385 Y87.573 E6.18418
G1 X103.998 Y86.473 E6.24271
G1 X103.767 Y85.382 E6.29865
G1 X103.676 Y84.146 E6.36083
G1 X103.676 Y59.743 E7.58556
G1 X103.730 Y58.859 E7.63002
G1 X103.902 Y57.887 E7.67955
G1 X104.291 Y56.678 E7.74326
G1 X104.915 Y55.465 E7.81175
G1 E5.81175 F2400.00000
G92 E0
G1 X111.165 Y59.541 F7800.000
G1 E2.00000 F2400.00000
G1 F1800.000
G1 X111.234 Y59.397 E2.00800
G1 X111.416 Y59.189 E2.02190
G1 X111.660 Y59.057 E2.03581
G1 X111.816 Y59.022 E2.04381
G1 X112.017 Y59.027 E2.05391
G1 X112.804 Y59.183 E2.09418
G1 X113.642 Y59.408 E2.13773
G1 X114.463 Y59.691 E2.18129
G1 X115.262 Y60.028 E2.22484
G1 X116.037 Y60.419 E2.26840
G1 X116.784 Y60.861 E2.31195
G1 X117.499 Y61.353 E2.35551
G1 X118.179 Y61.893 E2.39906
G1 X118.820 Y62.477 E2.44262
G1 X119.421 Y63.103 E2.48617
G1 X119.977 Y63.769 E2.52973
G1 X120.488 Y64.471 E2.57328
G1 X120.953 Y65.213 E2.61722
G1 X121.157 Y65.579 E2.63823
G1 X121.545 Y66.364 E2.68217
G1 X121.875 Y67.166 E2.72573
G1 X122.150 Y67.989 E2.76929
G1 X122.365 Y68.814 E2.81206
G1 X122.456 Y69.247 E2.83427
G1 X122.589 Y70.112 E2.87817
G1 X122.663 Y70.978 E2.92180
G1 X122.680 Y71.837 E2.96490
G1 X122.675 Y84.212 E3.58597
G1 X122.639 Y84.433 E3.59720
G1 X122.574 Y84.628 E3.60751
G1 X122.479 Y84.810 E3.61782
G1 X122.356 Y84.974 E3.62813
G1 X122.207 Y85.116 E3.63844
G1 X122.038 Y85.233 E3.64875
G1 X121.853 Y85.321 E3.65906
G1 X121.664 Y85.376 E3.66891
G1 X121.353 Y85.407 E3.68462
G1 X112.255 Y85.396 E4.14119
G1 X112.045 Y85.354 E4.15196
G1 X111.838 Y85.275 E4.16307
G1 X111.593 Y85.116 E4.17774
G1 X111.389 Y84.909 E4.19231
G1 X111.270 Y84.721 E4.20350
G1 X111.189 Y84.532 E4.21381
G1 X111.140 Y84.332 E4.22411
G1 X111.120 Y84.087 E4.23645
G1 X111.127 Y59.726 E5.45906
G1 X111.150 Y59.599 E5.46552
G1 X110.837 Y59.434 F7800.000
G1 F1800.000
G1 X110.937 Y59.220 E5.47740
G1 X111.055 Y59.057 E5.48750
G1 X111.200 Y58.918 E5.49760
G1 X111.368 Y58.807 E5.50769
G1 X111.553 Y58.728 E5.51779
G1 X111.762 Y58.681 E5.52851
G1 X112.058 Y58.684 E5.54340
G1 X112.882 Y58.847 E5.58557
G1 X113.743 Y59.078 E5.63030
G1 X114.586 Y59.368 E5.67503
G1 X115.407 Y59.715 E5.71976
G1 X116.203 Y60.116 E5.76449
G1 X116.970 Y60.570 E5.80922
G1 X117.704 Y61.076 E5.85395
G1 X118.402 Y61.630 E5.89868
G1 X119.061 Y62.230 E5.94341
G1 X119.678 Y62.873 E5.98814
G1 X120.250 Y63.557 E6.03287
G1 X120.774 Y64.278 E6.07761
G1 X121.250 Y65.037 E6.12257
G1 X121.463 Y65.418 E6.14447
G1 X121.859 Y66.222 E6.18944
G1 X122.198 Y67.046 E6.23417
G1 X122.481 Y67.891 E6.27891
G1 X122.701 Y68.735 E6.32269
G1 X122.795 Y69.186 E6.34579
G1 X122.932 Y70.071 E6.39073
G1 X123.007 Y70.960 E6.43551
G1 X123.025 Y71.833 E6.47934
G1 X123.019 Y84.247 E7.10233
G1 X122.975 Y84.516 E7.11600
G1 X122.893 Y84.763 E7.12910
G1 X122.771 Y84.995 E7.14221
G1 X122.615 Y85.203 E7.15531
G1 X122.426 Y85.384 E7.16842
G1 X122.211 Y85.533 E7.18152
G1 X121.975 Y85.645 E7.19463
G1 X121.730 Y85.716 E7.20745
G1 X121.370 Y85.752 E7.22561
G1 X112.210 Y85.739 E7.68531
G1 X111.948 Y85.686 E7.69870
G1 X111.598 Y85.539 E7.71780
G1 X111.374 Y85.384 E7.73145
G1 X111.179 Y85.197 E7.74499
G1 X110.963 Y84.881 E7.76419
G1 X110.861 Y84.641 E7.77730
G1 X110.798 Y84.388 E7.79039
G1 X110.775 Y84.101 E7.80483
G1 X110.782 Y59.695 E9.02969
G1 X110.819 Y59.492 E9.04004
G1 X110.509 Y59.328 F7800.000
G1 F1800.000
G1 X110.639 Y59.042 E9.05581
G1 X110.794 Y58.829 E9.06902
G1 X110.984 Y58.647 E9.08223
G1 X111.204 Y58.502 E9.09544
G1 X111.446 Y58.399 E9.10865
G1 X111.708 Y58.339 E9.12210
G1 X112.100 Y58.340 E9.14178
G1 X112.961 Y58.511 E9.18584
G1 X113.844 Y58.749 E9.23175
G1 X114.709 Y59.046 E9.27765
G1 X115.552 Y59.401 E9.32356
G1 X116.369 Y59.813 E9.36947
G1 X117.156 Y60.279 E9.41538
G1 X117.909 Y60.798 E9.46128
G1 X118.626 Y61.367 E9.50719
G1 X119.302 Y61.983 E9.55310
G1 X119.935 Y62.643 E9.59900
G1 X120.522 Y63.345 E9.64491
G1 X121.059 Y64.085 E9.69082
G1 X121.547 Y64.861 E9.73681
G1 X121.768 Y65.258 E9.75959
G1 X122.174 Y66.079 E9.80559
G1 X122.522 Y66.925 E9.85150
G1 X122.812 Y67.793 E9.89741
G1 X123.037 Y68.657 E9.94220
G1 X123.135 Y69.124 E9.96619
G1 X123.274 Y70.030 E10.01217
G1 X123.352 Y70.942 E10.05810
G1 X123.370 Y71.830 E10.10267
G1 X123.369 Y84.119 E10.71941
G1 X123.363 Y84.282 E10.72758
G1 X123.311 Y84.599 E10.74370
G1 X123.211 Y84.899 E10.75959
G1 X123.064 Y85.180 E10.77549
G1 X122.873 Y85.433 E10.79139
G1 X122.645 Y85.652 E10.80729
G1 X122.384 Y85.832 E10.82319
G1 X122.098 Y85.968 E10.83909
G1 X121.796 Y86.056 E10.85488
G1 X121.387 Y86.097 E10.87549
G1 X112.409 Y86.097 E11.32610
G1 X112.165 Y86.082 E11.33835
G1 X111.852 Y86.018 E11.35436
G1 X111.419 Y85.835 E11.37797
G1 X111.155 Y85.652 E11.39408
G1 X110.925 Y85.432 E11.41005
G1 X110.828 Y85.313 E11.41773
G1 X110.657 Y85.042 E11.43384
G1 X110.533 Y84.751 E11.44973
G1 X110.457 Y84.443 E11.46563
G1 X110.431 Y84.115 E11.48216
G1 X110.438 Y59.664 E12.70927
G1 X110.490 Y59.385 E12.72351
G1 X110.814 Y59.254 F7800.000
G1 E10.72351 F2400.00000
G92 E0
G1 X112.106 Y85.260 F7800.000
G1 E2.00000 F2400.00000
G1 F1800.000
G1 X111.593 Y84.747 E2.03686
G1 X111.499 Y84.600 E2.04571
G1 X111.435 Y84.449 E2.05402
G1 X111.396 Y84.291 E2.06233
G1 X111.379 Y84.040 E2.07509
G1 X112.477 Y85.138 E2.15398
G1 X112.971 Y85.139 E2.17909
G1 X111.379 Y83.546 E2.29347
G1 X111.379 Y83.053 E2.31855
G1 X113.466 Y85.139 E2.46843
G1 X113.960 Y85.140 E2.49354
G1 X111.379 Y82.559 E2.67893
G1 X111.380 Y82.066 E2.70400
G1 X114.454 Y85.140 E2.92489
G1 X114.948 Y85.141 E2.95000
G1 X111.380 Y81.572 E3.20639
G1 X111.380 Y81.079 E3.23146
G1 X115.443 Y85.142 E3.52335
G1 X115.937 Y85.142 E3.54846
G1 X111.380 Y80.585 E3.87585
G1 X111.380 Y80.091 E3.90092
G1 X116.431 Y85.143 E4.26382
G1 X116.926 Y85.143 E4.28893
G1 X111.380 Y79.598 E4.68732
G1 X111.380 Y79.104 E4.71239
G1 X117.420 Y85.144 E5.14628
G1 X117.914 Y85.144 E5.17139
G1 X111.381 Y78.611 E5.64079
G1 X111.381 Y78.117 E5.66586
G1 X118.409 Y85.145 E6.17076
G1 X118.903 Y85.146 E6.19587
G1 X111.381 Y77.624 E6.73626
G1 X111.381 Y77.130 E6.76134
G1 X119.397 Y85.146 E7.33724
G1 X119.891 Y85.147 E7.36235
G1 X111.381 Y76.636 E7.97374
G1 X111.381 Y76.143 E7.99882
G1 X120.386 Y85.147 E8.64572
G1 X120.880 Y85.148 E8.67083
G1 X111.381 Y75.649 E9.35323
G1 X111.382 Y75.156 E9.37830
G1 X121.371 Y85.145 E10.09597
G1 X121.615 Y85.121 E10.10841
G1 X121.786 Y85.066 E10.11754
G1 X111.382 Y74.662 E10.86500
G1 X111.382 Y74.169 E10.89008
G1 X122.087 Y84.873 E11.65914
G1 X122.161 Y84.802 E11.66439
G1 X122.300 Y84.593 E11.67712
G1 X111.382 Y73.675 E12.46152
G1 X111.382 Y73.181 E12.48660
G1 X122.407 Y84.206 E13.27863
G1 X122.421 Y83.727 E13.30299
G1 X111.382 Y72.688 E14.09604
G1 X111.382 Y72.194 E14.12112
G1 X122.421 Y83.233 E14.91416
G1 X122.421 Y82.739 E14.93924
G1 X111.383 Y71.701 E15.73227
G1 X111.383 Y71.207 E15.75734
G1 X122.421 Y82.245 E16.55036
G1 X122.421 Y81.752 E16.57544
G1 X111.383 Y70.713 E17.36845
G1 X111.383 Y70.220 E17.39353
G1 X122.421 Y81.258 E18.18653
G1 X122.421 Y80.764 E18.21161
G1 X111.383 Y69.726 E19.00460
G1 X111.383 Y69.233 E19.02968
G1 X122.421 Y80.271 E19.82266
G1 X122.421 Y79.777 E19.84774
G1 X111.383 Y68.739 E20.64071
G1 X111.384 Y68.246 E20.66579
G1 X122.421 Y79.283 E21.45875
G1 X122.421 Y78.789 E21.48383
G1 X111.384 Y67.752 E22.27679
G1 X111.384 Y67.258 E22.30186
G1 X122.421 Y78.296 E23.09481
G1 X122.421 Y77.802 E23.11989
G1 X111.384 Y66.765 E23.91283
G1 X111.384 Y66.271 E23.93790
G1 X122.421 Y77.308 E24.73083
G1 X122.421 Y76.815 E24.75591
G1 X111.384 Y65.778 E25.54883
G1 X111.384 Y65.284 E25.57390
G1 X122.421 Y76.321 E26.36681
G1 X122.421 Y75.827 E26.39189
G1 X111.385 Y64.791 E27.18480
G1 X111.385 Y64.297 E27.20987
G1 X122.421 Y75.334 E28.00276
G1 X122.421 Y74.840 E28.02784
G1 X111.385 Y63.803 E28.82072
G1 X111.385 Y63.310 E28.84580
G1 X122.421 Y74.346 E29.63867
G1 X122.421 Y73.852 E29.66375
G1 X111.385 Y62.816 E30.45661
G1 X111.385 Y62.323 E30.48169
G1 X122.421 Y73.359 E31.27454
G1 X122.421 Y72.865 E31.29962
G1 X111.385 Y61.829 E32.09247
G1 X111.385 Y61.336 E32.11754
G1 X122.421 Y72.371 E32.91038
G1 X122.421 Y71.878 E32.93546
G1 X111.386 Y60.842 E33.72829
G1 X111.386 Y60.348 E33.75336
G1 X122.412 Y71.375 E34.54550
G1 X122.404 Y70.992 E34.56496
G1 X122.393 Y70.862 E34.57156
G1 X111.386 Y59.855 E35.36235
G1 X111.405 Y59.647 E35.37296
G1 X111.454 Y59.539 E35.37898
G1 X111.505 Y59.480 E35.38294
G1 X122.347 Y70.322 E36.16187
G1 X122.272 Y69.753 E36.19103
G1 X111.809 Y59.291 E36.94269
G1 X111.986 Y59.285 E36.95166
G1 X112.373 Y59.361 E36.97173
G1 X122.174 Y69.161 E37.67580
G1 X122.020 Y68.514 E37.70961
G1 X113.013 Y59.507 E38.35669
G1 X113.702 Y59.703 E38.39312
G1 X121.822 Y67.822 E38.97641
G1 X121.550 Y67.057 E39.01764
G1 X114.466 Y59.973 E39.52658
G1 X115.348 Y60.360 E39.57550
G1 X121.164 Y66.177 E39.99336
G1 X120.928 Y65.699 E40.02043
G1 X120.570 Y65.089 E40.05639
G1 X116.437 Y60.956 E40.35330
G1 X116.645 Y61.079 E40.36557
G1 X117.345 Y61.561 E40.40877
G1 X118.011 Y62.090 E40.45196
G1 X118.607 Y62.632 E40.49290
G1 X120.130 Y64.156 E40.60236
G1 Z0.650 F7800.000
G1 X110.938 Y59.516
G1 F3600.000
G1 X111.033 Y59.297 E40.61385
G1 X111.132 Y59.155 E40.62220
G1 X111.255 Y59.031 E40.63055
G1 X111.453 Y58.898 E40.64203
G1 X111.636 Y58.831 E40.65143
G1 X111.807 Y58.800 E40.65978
G1 X111.980 Y58.798 E40.66812
G1 X112.502 Y58.887 E40.69358
G1 X112.910 Y58.977 E40.71369
G1 X113.756 Y59.209 E40.75588
G1 X114.577 Y59.494 E40.79766
G1 X115.377 Y59.834 E40.83945
G1 X116.152 Y60.226 E40.88123
G1 X116.899 Y60.669 E40.92302
G1 X117.616 Y61.161 E40.96481
G1 X118.297 Y61.699 E41.00659
G1 X118.942 Y62.282 E41.04838
G1 X119.545 Y62.907 E41.09016
G1 X120.106 Y63.570 E41.13195
G1 X120.621 Y64.270 E41.17374
G1 X121.089 Y65.002 E41.21552
G1 X121.506 Y65.764 E41.25731
G1 X121.872 Y66.552 E41.29909
G1 X122.184 Y67.363 E41.34088
G1 X122.441 Y68.193 E41.38267
G1 X122.645 Y69.046 E41.42485
G1 X122.721 Y69.457 E41.44495
G1 X122.838 Y70.326 E41.48713
G1 X122.896 Y71.193 E41.52892
G1 X122.896 Y84.265 E42.15763
G1 X122.827 Y84.591 E42.17367
G1 X122.737 Y84.809 E42.18500
G1 X122.614 Y85.009 E42.19632
G1 X122.461 Y85.189 E42.20765
G1 X122.282 Y85.341 E42.21897
G1 X122.081 Y85.465 E42.23030
G1 X121.864 Y85.555 E42.24163
G1 X121.635 Y85.610 E42.25295
G1 X121.361 Y85.631 E42.26617
G1 X112.439 Y85.631 E42.69527
G1 X112.165 Y85.610 E42.70848
G1 X111.917 Y85.550 E42.72076
G1 X111.616 Y85.407 E42.73680
G1 X111.425 Y85.269 E42.74812
G1 X111.245 Y85.088 E42.76039
G1 X111.063 Y84.809 E42.77644
G1 X110.973 Y84.591 E42.78776
G1 X110.918 Y84.362 E42.79909
G1 X110.896 Y84.088 E42.81229
G1 X110.904 Y59.709 E43.98488
G1 X110.927 Y59.575 E43.99140
G1 X110.570 Y59.401 F7800.000
G1 F3600.000
G1 X110.697 Y59.104 E44.00691
G1 X110.835 Y58.907 E44.01850
G1 X111.005 Y58.736 E44.03008
G1 X111.212 Y58.589 E44.04230
G1 X111.534 Y58.457 E44.05902
G1 X111.771 Y58.414 E44.07060
G1 X112.011 Y58.413 E44.08218
G1 X113.003 Y58.603 E44.13074
G1 X113.871 Y58.841 E44.17401
G1 X114.716 Y59.134 E44.21704
G1 X115.539 Y59.484 E44.26007
G1 X116.338 Y59.888 E44.30309
G1 X117.107 Y60.344 E44.34612
G1 X117.845 Y60.850 E44.38914
G1 X118.547 Y61.405 E44.43217
G1 X119.210 Y62.005 E44.47520
G1 X119.832 Y62.648 E44.51822
G1 X120.409 Y63.331 E44.56125
G1 X120.940 Y64.052 E44.60427
G1 X121.421 Y64.806 E44.64730
G1 X121.851 Y65.590 E44.69032
G1 X122.227 Y66.402 E44.73335
G1 X122.549 Y67.236 E44.77638
G1 X122.814 Y68.091 E44.81940
G1 X123.022 Y68.966 E44.86267
G1 X123.102 Y69.396 E44.88370
G1 X123.222 Y70.288 E44.92697
G1 X123.282 Y71.180 E44.97000
G1 X123.282 Y84.288 E45.60042
G1 X123.195 Y84.711 E45.62119
G1 X123.082 Y84.984 E45.63544
G1 X122.927 Y85.237 E45.64968
G1 X122.735 Y85.462 E45.66393
G1 X122.509 Y85.654 E45.67817
G1 X122.257 Y85.809 E45.69242
G1 X121.983 Y85.923 E45.70666
G1 X121.695 Y85.992 E45.72091
G1 X121.376 Y86.017 E45.73631
G1 X112.424 Y86.017 E46.16687
G1 X112.105 Y85.992 E46.18228
G1 X111.805 Y85.920 E46.19710
G1 X111.414 Y85.737 E46.21787
G1 X111.174 Y85.563 E46.23212
G1 X110.956 Y85.345 E46.24694
G1 X110.718 Y84.984 E46.26772
G1 X110.605 Y84.711 E46.28196
G1 X110.536 Y84.423 E46.29621
G1 X110.511 Y84.104 E46.31160
G1 X110.518 Y59.675 E47.48654
G1 X110.556 Y59.459 E47.49709
G1 X110.202 Y59.285 F7800.000
G1 F1800.000
G1 X110.362 Y58.911 E47.51663
G1 X110.538 Y58.659 E47.53145
G1 X110.755 Y58.440 E47.54626
G1 X111.010 Y58.260 E47.56131
G1 X111.138 Y58.192 E47.56826
G1 X111.432 Y58.084 E47.58331
G1 X111.735 Y58.029 E47.59812
G1 X112.043 Y58.027 E47.61293
G1 X112.650 Y58.130 E47.64256
G1 X113.096 Y58.228 E47.66452
G1 X113.985 Y58.472 E47.70888
G1 X114.855 Y58.774 E47.75314
G1 X115.702 Y59.134 E47.79741
G1 X116.523 Y59.549 E47.84167
G1 X117.315 Y60.018 E47.88594
G1 X118.074 Y60.540 E47.93020
G1 X118.796 Y61.110 E47.97447
G1 X119.478 Y61.728 E48.01874
G1 X120.118 Y62.389 E48.06300
G1 X120.712 Y63.092 E48.10727
G1 X121.258 Y63.833 E48.15153
G1 X121.753 Y64.609 E48.19580
G1 X122.195 Y65.416 E48.24006
G1 X122.582 Y66.251 E48.28433
G1 X122.913 Y67.110 E48.32860
G1 X123.186 Y67.989 E48.37286
G1 X123.399 Y68.886 E48.41722
G1 X123.483 Y69.335 E48.43917
G1 X123.606 Y70.249 E48.48353
G1 X123.667 Y71.167 E48.52779
G1 X123.667 Y84.310 E49.15993
G1 X123.647 Y84.479 E49.16809
G1 X123.563 Y84.830 E49.18547
G1 X123.426 Y85.160 E49.20264
G1 X123.240 Y85.464 E49.21980
G1 X123.008 Y85.736 E49.23697
G1 X122.737 Y85.967 E49.25413
G1 X122.433 Y86.154 E49.27130
G1 X122.103 Y86.290 E49.28846
G1 X121.756 Y86.374 E49.30563
G1 X121.391 Y86.402 E49.32322
G1 X112.409 Y86.402 E49.75524
G1 X112.044 Y86.374 E49.77283
G1 X111.693 Y86.289 E49.79021
G1 X111.534 Y86.231 E49.79837
G1 X111.212 Y86.067 E49.81575
G1 X110.923 Y85.857 E49.83291
G1 X110.667 Y85.601 E49.85029
G1 X110.562 Y85.468 E49.85846
G1 X110.374 Y85.160 E49.87583
G1 X110.237 Y84.830 E49.89300
G1 X110.154 Y84.483 E49.91016
G1 X110.125 Y84.119 E49.92775
G1 X110.133 Y59.641 E51.10503
